X:22
T:If You Knew Susie
M:C|
L:1/4
K:G
D | "G"G2A2 | AG2E | F2G2 | GF3| "G"E4"G#dim" | E4 | "Am"EDFE- | "D7"E3D |
"D"F2G2 | GF2D | "Am"E2F2 | "D"FE3 | "D7"D4 | "D"D4 | "G"B,C^CD|"A7"^DE"D7"=F^F |
"G"G2A2 | AG3 | "C"AGAG- | G4 | "A7"A2B2 | BA3 | "D7"BABA | BAFD |
"G"G2A2 | AG2E | "A7"A2B2 | BA3"Am7b5" | c4 | "D7"B_B=BG- | "G"G4- | G2z |]
